img/icon/ubt.svg

<svg width="38" height="38" fill="none" xmlns="http://www.w3.org/2000/svg"><path d="M22.8 25.57V30h4.988a2.216 2.216 0 0 0-.004-4.43H22.8zm0 0V21h4.426a2.287 2.287 0 0 1 0 4.572M17 17l-4.5-9L8 17m.794-1.588h7.412M31.316 37H6.684A5.683 5.683 0 0 1 1 31.316V6.684A5.683 5.683 0 0 1 6.684 1h24.632A5.683 5.683 0 0 1 37 6.684v24.632A5.683 5.683 0 0 1 31.316 37z" stroke="#E5E5E5" stroke-width="2" stroke-linecap="round" stroke-linejoin="round"/></svg>

<svg width="38" height="38" viewBox="0 0 38 38" fill="none" xmlns="http://www.w3.org/2000/svg">
<path d="M22.8 25.57V30H27.788C29.01 30 30.002 29.01 30 27.786C30 26.562 29.008 25.57 27.784 25.57H22.8ZM22.8 25.57V21H27.226C28.488 21 29.512 22.024 29.512 23.286C29.512 24.548 28.488 25.572 27.226 25.572M17 17L12.5 8L8 17M8.794 15.412H16.206M31.316 37H6.684C3.544 37 1 34.456 1 31.316V6.684C1 3.544 3.544 1 6.684 1H31.316C34.456 1 37 3.544 37 6.684V31.316C37 34.456 34.456 37 31.316 37Z" stroke="#E5E5E5" stroke-width="2" stroke-linecap="round" stroke-linejoin="round"/>
</svg>
